X: 173
T:Planxit autem David / Sagitta Jonathe
N: Derived from Jos1409-Planxit_autem_David.krn
C: Josquin des Prez
%%abc-version 2.0
%%abcx-abcm2ps-target-version 5.9.1 (29 Sep 2008)
%%abc-creator hum2abc beta
%%abcx-conversion-date 2019/02/12 16:15:46
%%abc-edited-by Jesse Rodin
%%abc-edited-by Will Watson 15/07/2011
%%abcx-initial-encoding-date 2011/07/15/
%%humdrum-veritas 1294130399
%%humdrum-veritas-data 943114807
%%linebreak <none>
%%barnumbers 0
L: 1/4
M: 2/1
Q: 1/2=120
%%staves [1 2 3 4]
V: 1 clef=treble
V: 2 clef=treble-8
V: 3 clef=treble-8
V: 4 clef=bass
K: F
[V:1] z8 | 
[V:2] z8 | 
[V:3] z8 | 
[V:4] C8 | 
[V:1] c8 | 
[V:2] z8 | 
[V:3] z8 | 
[V:4] C8 | 
[V:1] c8 | 
[V:2] z8 | 
[V:3] c8 | 
[V:4] A,8 | 
[V:1] A8 | 
[V:2] f8 | 
[V:3] c8 | 
[V:4] F,8- | 
[V:1] F8 | 
[V:2] f8 | 
[V:3] A8 | 
[V:4] F,8 | 
[V:1] z4F4 | 
[V:2] d3cdef2- | 
[V:3] F2B3cd2- | 
[V:4] B,,6B,2- | 
[V:1] B6AG | 
[V:2] f2ede4 | 
[V:3] dcBAB2cB | 
[V:4] B,A,G,F,G,4 | 
[V:1] !fermata!A8 | 
[V:2] !fermata!f8 | 
[V:3] !fermata!c8 | 
[V:4] !fermata!F,8 | 
[V:1] z4A4 | 
[V:2] z4f4 | 
[V:3] z4c4 | 
[V:4] z4F,4 | 
[V:1] A8 | 
[V:2] f6ed | 
[V:3] d2d4cB | 
[V:4] D,8 | 
[V:1] A4G3A | 
[V:2] c2d4c2 | 
[V:3] A2F2G2G2- | 
[V:4] F,4E,4 | 
[V:1] B2A4GF | 
[V:2] d2c3B/c/B2 | 
[V:3] G2FEF4 | 
[V:4] D,4D,4 | 
[V:1] E4z2E2 | 
[V:2] c4z2c2 | 
[V:3] G8 | 
[V:4] C,4z2C,2 | 
[V:1] F4G4 | 
[V:2] c4d4 | 
[V:3] z2A2B4 | 
[V:4] A,,4G,,4 | 
[V:1] E4z2F2 | 
[V:2] G4z2F2 | 
[V:3] c4A4 | 
[V:4] C,4z2D,2 | 
[V:1] F2_EDE2E2 | 
[V:2] F2G4F_E | 
[V:3] z2B2B2A2 | 
[V:4] D,2C,B,,C,2C,2 | 
[V:1] D8 | 
[V:2] F8 | 
[V:3] B8 | 
[V:4] B,,8 | 
[V:1] z2D2D4 | 
[V:2] z2F4G2- | 
[V:3] z2B4B2 | 
[V:4] z2B,,4B,,2 | 
[V:1] F4G4 | 
[V:2] GFF4E2 | 
[V:3] B8 | 
[V:4] B,,3A,,G,,4 | 
[V:1] A6G2 | 
[V:2] F2D4E2 | 
[V:3] A3GABc2- | 
[V:4] F,,2F,3E,C,2 | 
[V:1] F2EDE2A2- | 
[V:2] F4G2AB | 
[V:3] c2B2c3B | 
[V:4] D,4C,2F,2- | 
[V:1] AGF4E2 | 
[V:2] c2d2c4 | 
[V:3] A2B2G4 | 
[V:4] F,2B,,2C,4 | 
[V:1] !fermata!F8 | 
[V:2] !fermata!A8 | 
[V:3] !fermata!F8 | 
[V:4] !fermata!F,,8 | 
[V:1] z4C4 | 
[V:2] z4A4 | 
[V:3] z4F4 | 
[V:4] z4F,,4 | 
[V:1] D6D2 | 
[V:2] B6B2 | 
[V:3] F6F2 | 
[V:4] B,,6B,,2 | 
[V:1] D4F4 | 
[V:2] B4A4 | 
[V:3] F4F4 | 
[V:4] B,,4D,4 | 
[V:1] E2E4DC | 
[V:2] c8 | 
[V:3] G8 | 
[V:4] C,2C,4B,,A,, | 
[V:1] D8- | 
[V:2] B6AG | 
[V:3] G6FE | 
[V:4] G,,8 | 
[V:1] D8 | 
[V:2] F4f4 | 
[V:3] D8- | 
[V:4] z4B,,4 | 
[V:1] z4D4 | 
[V:2] f6ed | 
[V:3] D8 | 
[V:4] F,8 | 
[V:1] A8 | 
[V:2] c4f4- | 
[V:3] z4A4 | 
[V:4] F,4F,4- | 
[V:1] A4A4 | 
[V:2] f8- | 
[V:3] c8 | 
[V:4] F,4F,4 | 
[V:1] B6AG | 
[V:2] f4f4 | 
[V:3] d6cB | 
[V:4] B,,8 | 
[V:1] A3BG2A2- | 
[V:2] f4e2f2 | 
[V:3] c2d2B2c2 | 
[V:4] F,2D,2G,2F,2 | 
[V:1] AGG4^F2 | 
[V:2] B2c2d4 | 
[V:3] G4A4 | 
[V:4] _E,4D,4 | 
[V:1] G4z4 | 
[V:2] d8 | 
[V:3] G4z4 | 
[V:4] G,,8 | 
[V:1] E4E4 | 
[V:2] z4c4 | 
[V:3] G4G4 | 
[V:4] z4C,4 | 
[V:1] z4E4- | 
[V:2] c4z4 | 
[V:3] z4G4- | 
[V:4] C,4z4 | 
[V:1] E4E4 | 
[V:2] c4c4 | 
[V:3] G4G4 | 
[V:4] C,4C,4 | 
[V:1] D4D4 | 
[V:2] B4A4 | 
[V:3] F4F4 | 
[V:4] D,4D,4 | 
[V:1] C8 | 
[V:2] A8 | 
[V:3] E4z2C2- | 
[V:4] A,,8 | 
[V:1] z8 | 
[V:2] z8 | 
[V:3] CDEFG2A2- | 
[V:4] z2C,3B,,A,,G,, | 
[V:1] z8 | 
[V:2] z8 | 
[V:3] AGF4E2 | 
[V:4] A,,2B,,2G,,4 | 
[V:1] z2C3DEF | 
[V:2] z4z2c2- | 
[V:3] F8 | 
[V:4] F,,8 | 
[V:1] G2A3GF2- | 
[V:2] cBAGA2B2 | 
[V:3] z8 | 
[V:4] z8 | 
[V:1] F2E2F4 | 
[V:2] G4F4 | 
[V:3] z8 | 
[V:4] z8 | 
[V:1] z8 | 
[V:2] z2F2G2A2- | 
[V:3] C4D2E2 | 
[V:4] F,,4B,,2A,,2 | 
[V:1] z8 | 
[V:2] A2A3AA2- | 
[V:3] F3FF2F2 | 
[V:4] D,3D,D,2D,2 | 
[V:1] z8 | 
[V:2] A2A2A2A2 | 
[V:3] F2F2E3D | 
[V:4] D,2D,2C,3B,, | 
[V:1] z8 | 
[V:2] G2B3AA2- | 
[V:3] E2F3EE2- | 
[V:4] C,2D,3C,B,,A,, | 
[V:1] z8 | 
[V:2] A2G2A4 | 
[V:3] E2D2E4 | 
[V:4] B,,4A,,4 | 
[V:1] z8 | 
[V:2] z2A4A2 | 
[V:3] z2F4F2 | 
[V:4] z2F,,4F,,2 | 
[V:1] z8 | 
[V:2] A3GFEG2- | 
[V:3] F2EDC2D2- | 
[V:4] F,,3G,,A,,2B,,2- | 
[V:1] z8 | 
[V:2] GFF4E2 | 
[V:3] D2C4B,2 | 
[V:4] B,,A,,G,,F,,G,,4 | 
[V:1] F8- | 
[V:2] F2F3GAF | 
[V:3] C4z2F2- | 
[V:4] F,,8- | 
[V:1] F8 | 
[V:2] ABc3Ff2- | 
[V:3] FGAFA2B2- | 
[V:4] F,,8 | 
[V:1] G8 | 
[V:2] f2ede2fe | 
[V:3] BAGFG4 | 
[V:4] z8 | 
[V:1] A4A4- | 
[V:2] f4z2d2 | 
[V:3] z2d2c2d2 | 
[V:4] z8 | 
[V:1] A4A4 | 
[V:2] c2d2A3B | 
[V:3] A3Bc2F2- | 
[V:4] z8 | 
[V:1] A4A4 | 
[V:2] c2F3GAB | 
[V:3] FGABc3d | 
[V:4] z8 | 
[V:1] A4G4 | 
[V:2] c2A2B2c2 | 
[V:3] e2f4e2 | 
[V:4] z8 | 
[V:1] A4B4- | 
[V:2] F2f4ed | 
[V:3] f2F2G4- | 
[V:4] z8 | 
[V:1] B2AGA2B2- | 
[V:2] e4f2d2- | 
[V:3] G4F2G2- | 
[V:4] z8 | 
[V:1] BAA4G2 | 
[V:2] dcBAB4 | 
[V:3] GAF2G4 | 
[V:4] z8 | 
[V:1] A4z2A2 | 
[V:2] A4z2f2 | 
[V:3] D4z2d2 | 
[V:4] z4z2D,2 | 
[V:1] A4A4 | 
[V:2] f4f4 | 
[V:3] c4c4 | 
[V:4] F,4F,4 | 
[V:1] z4A4 | 
[V:2] z4f4 | 
[V:3] z4d4 | 
[V:4] z4D,4 | 
[V:1] A6A2 | 
[V:2] f6f2 | 
[V:3] c6c2 | 
[V:4] F,6F,2 | 
[V:1] G8 | 
[V:2] e8 | 
[V:3] c8 | 
[V:4] C,8 | 
[V:1] F3GABA2- | 
[V:2] d4c4- | 
[V:3] A4A3G | 
[V:4] D,3E,F,2F,,2- | 
[V:1] A2GFEDA2- | 
[V:2] c2BAG2c2- | 
[V:3] ABc3BAG | 
[V:4] F,,G,,A,,B,,C,2F,,2 | 
[V:1] AGF4E2 | 
[V:2] c2d2c4 | 
[V:3] A2B2G4 | 
[V:4] F,2B,,2C,4 | 
[V:1] F4z4 | 
[V:2] z4A4 | 
[V:3] F4z4 | 
[V:4] z4D,4 | 
[V:1] D4D4- | 
[V:2] B8 | 
[V:3] F4F4- | 
[V:4] B,,8 | 
[V:1] D4z4 | 
[V:2] z4B4 | 
[V:3] F4z4 | 
[V:4] z4B,,4 | 
[V:1] D4D4- | 
[V:2] B8 | 
[V:3] F4F4- | 
[V:4] B,,8 | 
[V:1] D4D4 | 
[V:2] B4B4 | 
[V:3] F4F4 | 
[V:4] B,,4B,,4 | 
[V:1] D8 | 
[V:2] B8 | 
[V:3] G8 | 
[V:4] G,,8 | 
[V:1] C8- | 
[V:2] A8- | 
[V:3] E8 | 
[V:4] A,,8 | 
[V:1] C8 | 
[V:2] A4z2A2 | 
[V:3] z2E2E2E2 | 
[V:4] z2A,,2A,,2A,,2 | 
[V:1] z8 | 
[V:2] A2B2c3B | 
[V:3] F4G4 | 
[V:4] D,4C,B,,C,D, | 
[V:1] z4z2C2 | 
[V:2] c2d3cc2- | 
[V:3] G2A3GG2- | 
[V:4] E,2F,3E,D,C, | 
[V:1] D2F4ED | 
[V:2] c2=BAB4 | 
[V:3] G2FEF4 | 
[V:4] D,4D,4 | 
[V:1] E8 | 
[V:2] c8 | 
[V:3] G8 | 
[V:4] C,8 | 
[V:1] z4E4 | 
[V:2] z4c4 | 
[V:3] z4G4 | 
[V:4] z4C,4 | 
[V:1] E4E4 | 
[V:2] c4c4 | 
[V:3] G4G4 | 
[V:4] C,4C,4 | 
[V:1] F4G4 | 
[V:2] c4d4 | 
[V:3] A4B4 | 
[V:4] A,,4G,,4 | 
[V:1] E8 | 
[V:2] c8 | 
[V:3] G8 | 
[V:4] C,8 | 
[V:1] z4B4- | 
[V:2] f6f2 | 
[V:3] d6d2 | 
[V:4] B,,6B,,2 | 
[V:1] B2B2B4 | 
[V:2] f8 | 
[V:3] d4d4 | 
[V:4] B,,8 | 
[V:1] A4G2A2- | 
[V:2] f4e2f2- | 
[V:3] c4B2c2- | 
[V:4] F,4G,2F,2- | 
[V:1] AGG4^F2 | 
[V:2] fedcd4 | 
[V:3] cBAGA4 | 
[V:4] F,G,E,2D,4 | 
[V:1] G8 | 
[V:2] d4z2G2- | 
[V:3] G8 | 
[V:4] z4C,4- | 
[V:1] z8 | 
[V:2] G2A4B2- | 
[V:3] z4F4 | 
[V:4] C,4D,4 | 
[V:1] z4C4 | 
[V:2] B2c3BAG | 
[V:3] G4A4 | 
[V:4] E,4F,4 | 
[V:1] D4E4 | 
[V:2] F4z2c2- | 
[V:3] B4G4- | 
[V:4] D,4C,4 | 
[V:1] F6ED | 
[V:2] c2=BA=B4 | 
[V:3] G2FEF4 | 
[V:4] D,8 | 
[V:1] E8- | 
[V:2] c8- | 
[V:3] G8 | 
[V:4] C,8 | 
[V:1] E8 | 
[V:2] c8 | 
[V:3] A8 | 
[V:4] A,,8 | 
[V:1] D8- | 
[V:2] A4z2B2- | 
[V:3] z2F4F2 | 
[V:4] D,6D,2 | 
[V:1] D8 | 
[V:2] B2B2B4 | 
[V:3] F8 | 
[V:4] D,8 | 
[V:1] z8 | 
[V:2] z2B2B2B2 | 
[V:3] z2F2F2F2 | 
[V:4] z2D,2D,2D,2 | 
[V:1] z8 | 
[V:2] A3GFEG2- | 
[V:3] E3DC2D2- | 
[V:4] C,3B,,A,,2B,,2- | 
[V:1] z2B2B2B2 | 
[V:2] G2F4E2 | 
[V:3] DCC4B,2 | 
[V:4] B,,A,,F,,2G,,4 | 
[V:1] A3G/F/EDG2- | 
[V:2] FGABcdef | 
[V:3] C6c2- | 
[V:4] F,,3G,,A,,B,,C,D, | 
[V:1] G2F4E2 | 
[V:2] e2c3Bc2 | 
[V:3] c2BAG4 | 
[V:4] E,2F,2C,4 | 
[V:1] F4z4 | 
[V:2] A4z4 | 
[V:3] F4z4 | 
[V:4] F,,4z4 | 
[V:1] C8 | 
[V:2] A8 | 
[V:3] F8 | 
[V:4] F,,8 | 
[V:1] C4C4 | 
[V:2] A4A4 | 
[V:3] F4F4- | 
[V:4] F,,8 | 
[V:1] D3CF4- | 
[V:2] B4c4 | 
[V:3] F4F4 | 
[V:4] B,,4A,,4 | 
[V:1] F2EDE4 | 
[V:2] B6AG | 
[V:3] G6FG | 
[V:4] G,,8 | 
[V:1] F8 | 
[V:2] c8 | 
[V:3] A8 | 
[V:4] F,,8 | 
[V:1] z4F4 | 
[V:2] z4c4 | 
[V:3] z4A4 | 
[V:4] z4F,,4 | 
[V:1] D8 | 
[V:2] B8 | 
[V:3] G8 | 
[V:4] G,,8 | 
[V:1] D4C4- | 
[V:2] B4A4- | 
[V:3] G4E4- | 
[V:4] G,,4A,,4- | 
[V:1] C2C2C4- | 
[V:2] A2A2A4- | 
[V:3] E2E2E4 | 
[V:4] A,,2A,,2A,,4 | 
[V:1] C4z2C2- | 
[V:2] A4z2A2- | 
[V:3] z2E2E4 | 
[V:4] z2A,,4A,,2 | 
[V:1] C2C2C4 | 
[V:2] A2A2A4 | 
[V:3] E8 | 
[V:4] A,,4A,,4 | 
[V:1] D2G2E2F2- | 
[V:2] B4ABcd | 
[V:3] G4C4 | 
[V:4] G,,4A,,4 | 
[V:1] FEDCD4 | 
[V:2] B2A4G2 | 
[V:3] D6CD | 
[V:4] B,,8 | 
[V:1] C8 | 
[V:2] A8 | 
[V:3] E8 | 
[V:4] A,,8 | 
[V:1] z2F4ED | 
[V:2] z8 | 
[V:3] A8 | 
[V:4] z8 | 
[V:1] F2E4A2- | 
[V:2] z8 | 
[V:3] A4A4 | 
[V:4] z8 | 
[V:1] A2GFG4 | 
[V:2] z8 | 
[V:3] B8 | 
[V:4] z8 | 
[V:1] A8 | 
[V:2] E4F4- | 
[V:3] A8- | 
[V:4] A,,8 | 
[V:1] z2c2c2c2 | 
[V:2] F2EFE2A2- | 
[V:3] A4z2E2 | 
[V:4] A,,4A,,4 | 
[V:1] d8 | 
[V:2] A2GFG4 | 
[V:3] E2DCD4 | 
[V:4] B,,8 | 
[V:1] c8 | 
[V:2] A8 | 
[V:3] E8 | 
[V:4] A,,8 | 
[V:1] z4c4 | 
[V:2] z4c4 | 
[V:3] z4A4 | 
[V:4] z4A,,4 | 
[V:1] B2A4GF | 
[V:2] d2c4=B2 | 
[V:3] F4F4 | 
[V:4] D,4D,4 | 
[V:1] E8 | 
[V:2] c8 | 
[V:3] G8 | 
[V:4] C,8 | 
[V:1] z4E4 | 
[V:2] z4c4 | 
[V:3] z4G4 | 
[V:4] z4C,4 | 
[V:1] E6E2 | 
[V:2] c6c2 | 
[V:3] G6A2 | 
[V:4] C,6C,2 | 
[V:1] E4F4 | 
[V:2] c8 | 
[V:3] A8 | 
[V:4] A,,8 | 
[V:1] G2G2A4 | 
[V:2] d2e2f4 | 
[V:3] B4c2c2 | 
[V:4] G,,4F,,2F,,2 | 
[V:1] G2A4GF | 
[V:2] e2f4ed | 
[V:3] B2c4BA | 
[V:4] G,,2F,,3G,,A,,B,, | 
[V:1] E3DEFG2- | 
[V:2] c3Bcd_e2- | 
[V:3] G3AG2c2- | 
[V:4] C,8- | 
[V:1] GFF4E2 | 
[V:2] edcBc4 | 
[V:3] c2BAG4 | 
[V:4] C,8 | 
[V:1] F8 | 
[V:2] A4z2f2- | 
[V:3] F8- | 
[V:4] F,,8- | 
[V:1] z2c4c2- | 
[V:2] f2f2f2ed | 
[V:3] F8 | 
[V:4] F,,8 | 
[V:1] cBAGA2B2- | 
[V:2] c3BcAd2- | 
[V:3] z8 | 
[V:4] z8 | 
[V:1] BAA4G2 | 
[V:2] dcBAB4 | 
[V:3] z8 | 
[V:4] z8 | 
[V:1] A8 | 
[V:2] A8 | 
[V:3] z4z2c2- | 
[V:4] z2F,4F,2 | 
[V:1] z8 | 
[V:2] z8 | 
[V:3] c2c3BAG | 
[V:4] F,2E,D,C,3B,, | 
[V:1] z4z2E2- | 
[V:2] z2F3EA2 | 
[V:3] A2B3Ac2- | 
[V:4] C,A,,D,3C,A,,2 | 
[V:1] E2F4ED | 
[V:2] G2F2D4 | 
[V:3] cBA4G2 | 
[V:4] C,2D,2B,,4 | 
[V:1] C4z4 | 
[V:2] E4z4 | 
[V:3] A4z4 | 
[V:4] A,,4z4 | 
[V:1] [M:3/1]C8C4 | 
[V:2] [M:3/1]A8A4 | 
[V:3] [M:3/1]E8E4 | 
[V:4] [M:3/1]A,,8A,,4 | 
[V:1] D8C4 | 
[V:2] G8A4 | 
[V:3] D8E4 | 
[V:4] B,,8A,,4 | 
[V:1] D6E2C4 | 
[V:2] A4B4A4 | 
[V:3] F4G4E4 | 
[V:4] D,4G,,4A,,4 | 
[V:1] z4C6B,2 | 
[V:2] z4A6B2 | 
[V:3] z4F8 | 
[V:4] z4F,,8 | 
[V:1] A,2G,2B,6A,2 | 
[V:2] c4d6cd | 
[V:3] E4G4F4 | 
[V:4] C,4G,,4B,,4 | 
[V:1] A,6G,A,G,4 | 
[V:2] c4B8 | 
[V:3] E4F4G4 | 
[V:4] C,4D,4E,4 | 
[V:1] [M:2/1]A,4z2D2- | 
[V:2] [M:2/1]A8 | 
[V:3] [M:2/1]D4F4 | 
[V:4] [M:2/1]F,2D,3C,B,,A,, | 
[V:1] D2D2D4 | 
[V:2] B8 | 
[V:3] G8 | 
[V:4] G,,8 | 
[V:1] C8 | 
[V:2] z2A2A2A2 | 
[V:3] E2F4ED | 
[V:4] A,,4z2A,,2 | 
[V:1] z2E2E2E2 | 
[V:2] c6BA | 
[V:3] C4z2E2 | 
[V:4] A,,2A,,2C,4- | 
[V:1] G6FE | 
[V:2] G3ABcd2- | 
[V:3] E2E2G4- | 
[V:4] C,2B,,A,,G,,3A,, | 
[V:1] D3EFGA2- | 
[V:2] def4ed | 
[V:3] G2FED3E | 
[V:4] B,,C,D,4C,B,, | 
[V:1] AGG4^F2 | 
[V:2] d2c2d4- | 
[V:3] F2G2A4 | 
[V:4] D,2E,2D,4 | 
[V:1] G8 | 
[V:2] d8 | 
[V:3] G2B4AG | 
[V:4] z2G,4F,E, | 
[V:1] A8 | 
[V:2] z2d2d2d2 | 
[V:3] F8- | 
[V:4] D,4z2D,2 | 
[V:1] z2A2A2A2 | 
[V:2] f6ed | 
[V:3] F4z2A2 | 
[V:4] D,2D,2F,4- | 
[V:1] c6BA | 
[V:2] c3defg2- | 
[V:3] A2A2c4- | 
[V:4] F,2E,D,C,3D, | 
[V:1] G3ABcd2- | 
[V:2] gfd6- | 
[V:3] c2BAG3A | 
[V:4] E,F,G,4F,E, | 
[V:1] d2c4B2 | 
[V:2] d2G2A2B2 | 
[V:3] B2c2d4 | 
[V:4] G,2E,2F,2G,2 | 
[V:1] c4z2c2- | 
[V:2] G2A4GF | 
[V:3] c8- | 
[V:4] C,2F,4E,D, | 
[V:1] cBA4GF | 
[V:2] G2A2F4 | 
[V:3] c4A3B | 
[V:4] E,2F,4E,D, | 
[V:1] E2G4F2- | 
[V:2] G2c3AB2 | 
[V:3] c3BA3G/F/ | 
[V:4] C,4D,4 | 
[V:1] F2EDE4 | 
[V:2] c8 | 
[V:3] G8 | 
[V:4] C,8 | 
[V:1] F8 ||  
[V:2] c8 ||  
[V:3] F8 ||  
[V:4] F,,8 ||  
[V:1] [M:2/1]z8 | 
[V:2] [M:2/1]z8 | 
[V:3] [M:2/1]z2F2F3G | 
[V:4] [M:2/1]z8 | 
[V:1] z2F2F3G | 
[V:2] z8 | 
[V:3] AFB3AA2- | 
[V:4] z8 | 
[V:1] AFB4A2- | 
[V:2] z8 | 
[V:3] A2G2A2c2- | 
[V:4] z8 | 
[V:1] A2GFG3A | 
[V:2] z8 | 
[V:3] c2BAB2c2 | 
[V:4] z8 | 
[V:1] A4z2c2 | 
[V:2] z8 | 
[V:3] F8 | 
[V:4] z8 | 
[V:1] c3BA2G2 | 
[V:2] z8 | 
[V:3] z2f2f3e | 
[V:4] z8 | 
[V:1] F2G3FED | 
[V:2] z8 | 
[V:3] d2c2B2c2- | 
[V:4] z8 | 
[V:1] C2cBAGA2- | 
[V:2] z8 | 
[V:3] cBAGF2c2 | 
[V:4] z8 | 
[V:1] AGF4E2 | 
[V:2] z8 | 
[V:3] BAGFG4 | 
[V:4] z8 | 
[V:1] F8- | 
[V:2] z8 | 
[V:3] F8- | 
[V:4] z4z2F,,2 | 
[V:1] F8 | 
[V:2] z4z2F2 | 
[V:3] F8 | 
[V:4] F,,3G,,A,,F,,B,,2- | 
[V:1] z8 | 
[V:2] F3GAFB2- | 
[V:3] z8 | 
[V:4] B,,A,,A,,4G,,2 | 
[V:1] z8 | 
[V:2] BAA4G2 | 
[V:3] z8 | 
[V:4] A,,2C,2B,,4 | 
[V:1] z8 | 
[V:2] A4z2A2 | 
[V:3] z8 | 
[V:4] A,,8 | 
[V:1] z8 | 
[V:2] c3BA2G2 | 
[V:3] z8 | 
[V:4] z2A,,2C,3B,, | 
[V:1] z8 | 
[V:2] FGABA2G2- | 
[V:3] z8 | 
[V:4] A,,2G,,2F,,2C,2 | 
[V:1] z4z2A2 | 
[V:2] GFF4E2 | 
[V:3] z8 | 
[V:4] B,,A,,G,,F,,G,,4 | 
[V:1] c3BA2G2 | 
[V:2] F2EDC2c2- | 
[V:3] z2A2c3B | 
[V:4] F,,3G,,A,,B,,C,2 | 
[V:1] FGABA2G2- | 
[V:2] cde2f2e2 | 
[V:3] A2G2F2G2 | 
[V:4] F,,2C,2D,2E,2 | 
[V:1] GFF4E2 | 
[V:2] c2d2c4 | 
[V:3] A2B2G4 | 
[V:4] F,2B,,2C,4 | 
[V:1] F8 | 
[V:2] c8 | 
[V:3] F8 | 
[V:4] F,,8 | 
[V:1] z2C2D2D2 | 
[V:2] z8 | 
[V:3] z2A2B2B2 | 
[V:4] z8 | 
[V:1] C3DEFG2- | 
[V:2] z8 | 
[V:3] A2c4BA | 
[V:4] z8 | 
[V:1] GFF4E2 | 
[V:2] z4z2c2 | 
[V:3] BAGFG4 | 
[V:4] z4C,4 | 
[V:1] F4z4 | 
[V:2] c2B2c3B | 
[V:3] F4z4 | 
[V:4] D,2D,2C,2F,2- | 
[V:1] z8 | 
[V:2] AGd3cBA | 
[V:3] z8 | 
[V:4] F,E,D,C,D,2G,2- | 
[V:1] z2C2D4 | 
[V:2] G2c4=B2 | 
[V:3] z4z2F2 | 
[V:4] G,2F,E,D,4 | 
[V:1] E4F3G | 
[V:2] c4d4 | 
[V:3] G4A3B | 
[V:4] C,2E,2D,4 | 
[V:1] AFB4A2 | 
[V:2] e2f3cf2- | 
[V:3] c2d4c2- | 
[V:4] C,2B,,2F,4 | 
[V:1] BAGFG4 | 
[V:2] f2ede4 | 
[V:3] c2BAB3c | 
[V:4] G,8 | 
[V:1] A8 | 
[V:2] f8 | 
[V:3] c8 | 
[V:4] F,8 | 
[V:1] z4A4 | 
[V:2] z4f4 | 
[V:3] z4c4 | 
[V:4] z4F,4 | 
[V:1] A6G2 | 
[V:2] c4c4 | 
[V:3] A4A4 | 
[V:4] F,4F,4 | 
[V:1] F8 | 
[V:2] d8 | 
[V:3] B8 | 
[V:4] B,,8 | 
[V:1] E8 | 
[V:2] c8 | 
[V:3] G8 | 
[V:4] C,8 | 
[V:1] z4E4 | 
[V:2] z4c4- | 
[V:3] z4G4 | 
[V:4] z4C,4 | 
[V:1] E4E4 | 
[V:2] c4c4 | 
[V:3] G4G4 | 
[V:4] C,6B,,2 | 
[V:1] F2G3FED | 
[V:2] c2d4cB | 
[V:3] A2B3Gc2- | 
[V:4] A,,2G,,4A,,2- | 
[V:1] C2F4E2 | 
[V:2] A2c3Bc2 | 
[V:3] c2BAG4 | 
[V:4] A,,2G,,F,,C,4 | 
[V:1] F8 | 
[V:2] A8 | 
[V:3] F8 | 
[V:4] F,,8 | 
[V:1] z8 | 
[V:2] z2A2A2A2 | 
[V:3] z8 | 
[V:4] z2F,2F,2F,2 | 
[V:1] z8 | 
[V:2] G3ABcd2- | 
[V:3] z8 | 
[V:4] E,2G,4F,E, | 
[V:1] z2F2F2F2 | 
[V:2] d2c4=B2 | 
[V:3] z2F2F2F2 | 
[V:4] F,E,D,C,D,4 | 
[V:1] E4F2G2- | 
[V:2] c6d2- | 
[V:3] G2A3FB2- | 
[V:4] C,3B,,A,,2G,,2- | 
[V:1] GFEDC2G2- | 
[V:2] d2cBA4 | 
[V:3] BAc4BA | 
[V:4] G,,2A,,4G,,F,, | 
[V:1] GFF4E2 | 
[V:2] d2c2d2cB | 
[V:3] B2A2G4 | 
[V:4] G,,2A,,2B,,2C,2 | 
[V:1] [M:3/1]F8z4 | 
[V:2] [M:3/1]c8z4 | 
[V:3] [M:3/1]F8z4 | 
[V:4] [M:3/1]F,,8z4 | 
[V:1] F8G4- | 
[V:2] A8B4- | 
[V:3] C8D4- | 
[V:4] F,,8B,,4- | 
[V:1] G4A8 | 
[V:2] B4c8 | 
[V:3] D4E8 | 
[V:4] B,,4A,,8 | 
[V:1] F6F2F4 | 
[V:2] A6A2A4 | 
[V:3] F6F2F4 | 
[V:4] D,6D,2D,4 | 
[V:1] F4F4F4 | 
[V:2] d4d4d4 | 
[V:3] A4A4B4 | 
[V:4] D,4D,4B,,4 | 
[V:1] E4D6C2 | 
[V:2] c4B6A2 | 
[V:3] G4F6E2 | 
[V:4] C,4D,6A,,2 | 
[V:1] E4F4G4 | 
[V:2] G8G4 | 
[V:3] E6DCD4 | 
[V:4] C,4B,,8 | 
[V:1] C8z4 | 
[V:2] A8z4 | 
[V:3] E8z4 | 
[V:4] A,,8z4 | 
[V:1] C8C4- | 
[V:2] A8A4- | 
[V:3] E8E4- | 
[V:4] A,,8A,,4- | 
[V:1] C4C8 | 
[V:2] A4A8 | 
[V:3] E4F8 | 
[V:4] A,,4F,,8 | 
[V:1] D4D8 | 
[V:2] F4B8 | 
[V:3] D4G8 | 
[V:4] B,,4G,,8 | 
[V:1] C4D4F4 | 
[V:2] A4A4B4 | 
[V:3] E4F4F4 | 
[V:4] A,,4D,4D,4 | 
[V:1] E8z4 | 
[V:2] c8z4 | 
[V:3] G8z4 | 
[V:4] C,8z4 | 
[V:1] F8F4 | 
[V:2] c8c4 | 
[V:3] A8A4 | 
[V:4] F,8F,4 | 
[V:1] F8E4 | 
[V:2] d8c4 | 
[V:3] B6A2G4 | 
[V:4] B,,8C,4 | 
[V:1] F4G6FG | 
[V:2] A4B4G4 | 
[V:3] F6EFE4 | 
[V:4] D,4B,,4C,4 | 
[V:1] A8z4 | 
[V:2] c8z4 | 
[V:3] F8z4 | 
[V:4] F,,8z4 | 
[V:1] A4A4A4 | 
[V:2] f4f4f4 | 
[V:3] c4c4c4 | 
[V:4] F,4F,4F,4 | 
[V:1] G8G4 | 
[V:2] e8e4 | 
[V:3] c8c4 | 
[V:4] C,8C,4 | 
[V:1] A6G2F4 | 
[V:2] c4d8 | 
[V:3] A4B8 | 
[V:4] F,4D,8 | 
[V:1] E4F6G2 | 
[V:2] G4d4d4 | 
[V:3] c4A4B4 | 
[V:4] C,4D,4B,,4 | 
[V:1] E8z4 | 
[V:2] c8z4 | 
[V:3] G8z4 | 
[V:4] C,8z4 | 
[V:1] E6F2G2E2 | 
[V:2] c6d2e4 | 
[V:3] G6A2B2G2 | 
[V:4] C,6B,,A,,G,,4 | 
[V:1] A4G6FG | 
[V:2] f4e4d4 | 
[V:3] c8B4 | 
[V:4] F,,4C,4G,,4 | 
[V:1] F6EFE4 | 
[V:2] c4d4c4 | 
[V:3] A4G8 | 
[V:4] A,,4B,,4C,4 | 
[V:1] [M:2/1]F8- | 
[V:2] [M:2/1]A4z4 | 
[V:3] [M:2/1]F3E/D/C2D2- | 
[V:4] [M:2/1]F,,3G,,A,,F,,B,,2- | 
[V:1] F8 | 
[V:2] F8 | 
[V:3] DCF3ED2 | 
[V:4] B,,A,,D,3C,F,2- | 
[V:1] z8 | 
[V:2] G8 | 
[V:3] C8 | 
[V:4] F,2E,D,E,3F, | 
[V:1] z8 | 
[V:2] A8 | 
[V:3] z2F2E2F2- | 
[V:4] F,3E,/D,/C,2D,2- | 
[V:1] z8 | 
[V:2] A4A4 | 
[V:3] F2EDC2F2- | 
[V:4] D,2C,B,,A,,2D,2 | 
[V:1] z8 | 
[V:2] A4A4- | 
[V:3] FED2C2F2- | 
[V:4] C,2F,3E,D,2 | 
[V:1] z8 | 
[V:2] A4A4- | 
[V:3] FED2C2F2 | 
[V:4] C,2F,3E,D,2 | 
[V:1] z8 | 
[V:2] A4A4 | 
[V:3] E2F3EC2 | 
[V:4] C,2D,3C,A,,2 | 
[V:1] z8 | 
[V:2] G4z2B2- | 
[V:3] D2E2F2G2- | 
[V:4] B,,2C,2D,2G,,2- | 
[V:1] z8 | 
[V:2] B2AGA2B2- | 
[V:3] GFD2E2F2- | 
[V:4] G,,A,,B,,2C,2D,2- | 
[V:1] z8 | 
[V:2] BAA4G2 | 
[V:3] F2E4D2 | 
[V:4] D,C,B,,A,,B,,4 | 
[V:1] z8 | 
[V:2] A4B4 | 
[V:3] E2F3E/F/E2 | 
[V:4] A,,3G,,/F,,/G,,4 | 
[V:1] F8- | 
[V:2] A3BcAd2- | 
[V:3] F3GAFB2- | 
[V:4] F,,4z4 | 
[V:1] F8 | 
[V:2] d2cBc2f2- | 
[V:3] B2AGA2d2- | 
[V:4] z2F,4E,D, | 
[V:1] G8 | 
[V:2] f2ede4 | 
[V:3] dcBAB3c | 
[V:4] G,8 | 
[V:1] A8 | 
[V:2] f8 | 
[V:3] c4z2c2 | 
[V:4] F,8 | 
[V:1] A4A4 | 
[V:2] z2c2d2c2 | 
[V:3] d3cf3e | 
[V:4] F,8 | 
[V:1] A4A4 | 
[V:2] f3ec2f2- | 
[V:3] c2f4ed | 
[V:4] F,4F,4- | 
[V:1] A2c3BA2- | 
[V:2] f2edc2f2 | 
[V:3] c4A4 | 
[V:4] F,4F,4 | 
[V:1] A2GFG4 | 
[V:2] d4d4 | 
[V:3] B8 | 
[V:4] G,8 | 
[V:1] A8 | 
[V:2] z2d2c2d2- | 
[V:3] A8- | 
[V:4] D,4z2D,2- | 
[V:1] z2A4A2 | 
[V:2] d2cBA3B | 
[V:3] A4z2A2- | 
[V:4] D,2D,2D,2C,B,, | 
[V:1] A2GFEFG2- | 
[V:2] cde2c3B | 
[V:3] A2A2A2GF | 
[V:4] A,,3B,,C,D,E,2 | 
[V:1] GFF4E2 | 
[V:2] c2B2c4 | 
[V:3] E2F2G4 | 
[V:4] C,2D,2C,4 | 
[V:1] F4z4 | 
[V:2] A4z4 | 
[V:3] F4z4 | 
[V:4] F,,4z4 | 
[V:1] C6C2 | 
[V:2] A6A2 | 
[V:3] F6F2 | 
[V:4] F,,6F,,2 | 
[V:1] D4F4 | 
[V:2] B4A4 | 
[V:3] F4F4 | 
[V:4] B,,4D,4 | 
[V:1] E2E4DC | 
[V:2] c8 | 
[V:3] G4A4 | 
[V:4] C,8 | 
[V:1] D4z2F2 | 
[V:2] F8 | 
[V:3] B4z2d2 | 
[V:4] B,,8 | 
[V:1] F2F2E2A2- | 
[V:2] z8 | 
[V:3] d2d2c3B | 
[V:4] z8 | 
[V:1] A2GFG4 | 
[V:2] z8 | 
[V:3] c2d2B4 | 
[V:4] z8 | 
[V:1] A8 | 
[V:2] z4z2F2 | 
[V:3] A8 | 
[V:4] z4z2D,2 | 
[V:1] z8 | 
[V:2] F2F2E2A2- | 
[V:3] z8 | 
[V:4] D,2D,2C,3B,, | 
[V:1] z8 | 
[V:2] A2GFG4 | 
[V:3] z8 | 
[V:4] C,2D,2B,,4 | 
[V:1] z4z2C2- | 
[V:2] A4z2A2- | 
[V:3] z4z2E2- | 
[V:4] A,,4z2A,,2- | 
[V:1] C2C2D4- | 
[V:2] A2A2A4 | 
[V:3] E2E2F4 | 
[V:4] A,,2A,,2D,4 | 
[V:1] D4D4 | 
[V:2] B8 | 
[V:3] G8 | 
[V:4] G,,8 | 
[V:1] C4z2C2- | 
[V:2] A4z2A2- | 
[V:3] E8 | 
[V:4] A,,8 | 
[V:1] C2C2C2C2 | 
[V:2] A2A2A4 | 
[V:3] z2E4E2 | 
[V:4] z2A,,4A,,2 | 
[V:1] D2F4ED | 
[V:2] A4B4 | 
[V:3] F4F4 | 
[V:4] D,4D,4 | 
[V:1] E3Cc4- | 
[V:2] c2e4dc | 
[V:3] G8- | 
[V:4] C,6B,,A,, | 
[V:1] c2=BA=B3c | 
[V:2] d8 | 
[V:3] G8 | 
[V:4] G,,8 | 
[V:1] c4z4 | 
[V:2] c4z4 | 
[V:3] G4z4 | 
[V:4] C,4z4 | 
[V:1] A4A2A2 | 
[V:2] f4f2f2 | 
[V:3] F4F2F2 | 
[V:4] D,4D,2D,2 | 
[V:1] A4A4 | 
[V:2] f4d3e | 
[V:3] F4F4 | 
[V:4] D,4D,4- | 
[V:1] A4G2A2- | 
[V:2] f4d2f2 | 
[V:3] A4B2c2- | 
[V:4] D,2F,2G,2F,2- | 
[V:1] A2GFEDG2- | 
[V:2] F4G2c2- | 
[V:3] cAB2c3B | 
[V:4] F,2E,D,C,4 | 
[V:1] G2F4E2 | 
[V:2] cBcBc4 | 
[V:3] A2GFG4 | 
[V:4] D,4C,4 | 
[V:1] F4z2F2 | 
[V:2] A4A4 | 
[V:3] F8- | 
[V:4] F,,8- | 
[V:1] A2A2c4- | 
[V:2] z2F2A2A2 | 
[V:3] F8 | 
[V:4] F,,4z2F,,2 | 
[V:1] c2BAG4 | 
[V:2] c6BA | 
[V:3] z2C2E2E2 | 
[V:4] A,,2A,,2C,4- | 
[V:1] z2D4D2 | 
[V:2] G4z2d2- | 
[V:3] G6FE | 
[V:4] C,2B,,A,,G,,4 | 
[V:1] F2F2F2ED | 
[V:2] d2d2f2f2 | 
[V:3] D4z2A2- | 
[V:4] z2D,4D,2 | 
[V:1] C4F4 | 
[V:2] f2edc2F2 | 
[V:3] A2A2c2c2 | 
[V:4] F,2F,2F,3E,/D,/ | 
[V:1] E6DC | 
[V:2] G4z2E2- | 
[V:3] c2BAG2A2- | 
[V:4] C,6B,,A,, | 
[V:1] D4C4 | 
[V:2] E2D2E4 | 
[V:3] AG/A/G2A4 | 
[V:4] B,,4A,,4 | 
[V:1] z2C4C2 | 
[V:2] z2A4A2 | 
[V:3] z2E4E2 | 
[V:4] z2A,,4A,,2 | 
[V:1] C4D2E2- | 
[V:2] A2A3Bc2- | 
[V:3] E4F2G2- | 
[V:4] A,,4D,2C,2- | 
[V:1] ECE2F2G2 | 
[V:2] cBA4G2 | 
[V:3] G2E4D2 | 
[V:4] C,A,,C,2B,,4 | 
[V:1] C4z4 | 
[V:2] A8 | 
[V:3] E4z4 | 
[V:4] A,,8 | 
[V:1] C4z4 | 
[V:2] z4A4 | 
[V:3] E4z4 | 
[V:4] z4A,,4 | 
[V:1] C4D4 | 
[V:2] z4G4 | 
[V:3] E4D4 | 
[V:4] z4B,,4 | 
[V:1] z4E4 | 
[V:2] A4c4 | 
[V:3] z4A4 | 
[V:4] A,,4A,,4 | 
[V:1] E6F2 | 
[V:2] c6d2 | 
[V:3] G6A2 | 
[V:4] C,6B,,A,, | 
[V:1] G4A4 | 
[V:2] e4f4 | 
[V:3] B4A4 | 
[V:4] G,,4F,,2F,2 | 
[V:1] G2A4GF | 
[V:2] g2f2F4 | 
[V:3] c4A2c2- | 
[V:4] E,2F,4E,D, | 
[V:1] E2F4E2 | 
[V:2] Gc2Bc4 | 
[V:3] cBAG/F/G4 | 
[V:4] C,2D,2C,4 | 
[V:1] [M:3/1]F8z4 | 
[V:2] [M:3/1]c8z4 | 
[V:3] [M:3/1]F8z4 | 
[V:4] [M:3/1]F,8z4 | 
[V:1] F8G4 | 
[V:2] d8e4 | 
[V:3] A8B4 | 
[V:4] D,8G,4 | 
[V:1] A8A4 | 
[V:2] f8f4 | 
[V:3] c8c4 | 
[V:4] F,8F,4 | 
[V:1] A8G4 | 
[V:2] f8e4 | 
[V:3] c8B4 | 
[V:4] F,8G,4 | 
[V:1] A4B6c2 | 
[V:2] f4g6f2 | 
[V:3] c4d6c2 | 
[V:4] F,4B,6A,2 | 
[V:1] A8G4 | 
[V:2] f8e4 | 
[V:3] c8B4 | 
[V:4] F,4G,8 | 
[V:1] [M:2/1]A8- | 
[V:2] [M:2/1]f8- | 
[V:3] [M:2/1]c8 | 
[V:4] [M:2/1]F,8- | 
[V:1] A8 | 
[V:2] f8 | 
[V:3] z2c2d2c2- | 
[V:4] F,8 | 
[V:1] z8 | 
[V:2] z2c2d2c2- | 
[V:3] c2BAB2c2 | 
[V:4] z8 | 
[V:1] c4d2c2- | 
[V:2] c2BAB2c2 | 
[V:3] F2A2G2A2- | 
[V:4] z8 | 
[V:1] c2BAB2c2 | 
[V:2] F4z4 | 
[V:3] AFf2d2f2 | 
[V:4] F,4G,2F,2- | 
[V:1] F4z2A2 | 
[V:2] f4g2f2- | 
[V:3] z2c4BA | 
[V:4] F,2E,D,E,2F,2 | 
[V:1] B3AG4 | 
[V:2] fed4c2- | 
[V:3] d2G3FE2 | 
[V:4] B,,4C,4 | 
[V:1] F2A4GF | 
[V:2] c2=BA=B4 | 
[V:3] F8 | 
[V:4] D,8 | 
[V:1] E8 | 
[V:2] c8 | 
[V:3] G8 | 
[V:4] C,8 | 
[V:1] z4E4 | 
[V:2] z4c4 | 
[V:3] z4G4 | 
[V:4] z4C,4 | 
[V:1] F4G4- | 
[V:2] c4d4 | 
[V:3] A4B4 | 
[V:4] A,,4G,,4 | 
[V:1] G2F2E2D2 | 
[V:2] e4c4- | 
[V:3] c6B2 | 
[V:4] C,6D,E, | 
[V:1] C4F4- | 
[V:2] c4B4 | 
[V:3] A2G2F4 | 
[V:4] F,4D,4 | 
[V:1] F2EDE4 | 
[V:2] c8 | 
[V:3] G4G4 | 
[V:4] C,8 | 
[V:1] F2A3GF2- | 
[V:2] A4B4 | 
[V:3] F8 | 
[V:4] D,8 | 
[V:1] F2ED!fermata!E4 | 
[V:2] !fermata!c8 | 
[V:3] !fermata!G8 | 
[V:4] !fermata!C,8 | 
[V:1] F8 |]  
[V:2] c8 |]  
[V:3] F8 |]  
[V:4] F,,8 |]  



